outline/svg/face.svg

<svg xmlns="http://www.w3.org/2000/svg" width="24" height="24"><path fill="none" d="M0 0h24v24H0V0z"/><g fill="currentColor"><path d="M10.25 13a1.25 1.25 0 1 1-2.5 0 1.25 1.25 0 0 1 2.5 0zM15 11.75a1.25 1.25 0 1 0 0 2.5 1.25 1.25 0 0 0 0-2.5zm7 .25c0 5.52-4.48 10-10 10S2 17.52 2 12 6.48 2 12 2s10 4.48 10 10zM10.66 4.12C12.06 6.44 14.6 8 17.5 8c.46 0 .91-.05 1.34-.12C17.44 5.56 14.9 4 12 4c-.46 0-.91.05-1.34.12zM4.42 9.47a8.046 8.046 0 0 0 3.66-4.44 8.046 8.046 0 0 0-3.66 4.44zM20 12c0-.78-.12-1.53-.33-2.24-.7.15-1.42.24-2.17.24a10 10 0 0 1-7.76-3.69A10.016 10.016 0 0 1 4 11.86c.01.04 0 .09 0 .14 0 4.41 3.59 8 8 8s8-3.59 8-8z"/></g></svg>

<?xml version="1.0" encoding="utf-8"?>
<!-- Generator: Adobe Illustrator 19.1.0, SVG Export Plug-In . SVG Version: 6.00 Build 0)  -->
<svg version="1.1" xmlns="http://www.w3.org/2000/svg" xmlns:xlink="http://www.w3.org/1999/xlink" x="0px" y="0px" width="24px"
	 height="24px" viewBox="0 0 24 24" enable-background="new 0 0 24 24" xml:space="preserve">
<g id="Header_x2F_BG" display="none">
	<rect x="-226" y="-358" display="inline" fill="#F1F1F2" width="520" height="520"/>
</g>
<g id="Bounding_Boxes">
	<g id="ui_x5F_spec_x5F_header_copy_3">
	</g>
	<path fill="none" d="M0,0h24v24H0V0z"/>
</g>
<g id="Rounded" display="none">
	<g id="ui_x5F_spec_x5F_header_copy_5" display="inline">
	</g>
	<path display="inline" d="M9,11.75c-0.69,0-1.25,0.56-1.25,1.25S8.31,14.25,9,14.25s1.25-0.56,1.25-1.25S9.69,11.75,9,11.75z
		 M15,11.75c-0.69,0-1.25,0.56-1.25,1.25s0.56,1.25,1.25,1.25s1.25-0.56,1.25-1.25S15.69,11.75,15,11.75z M12,2C6.48,2,2,6.48,2,12
		s4.48,10,10,10s10-4.48,10-10S17.52,2,12,2z M12,20c-4.41,0-8-3.59-8-8c0-0.29,0.02-0.58,0.05-0.86c2.36-1.05,4.23-2.98,5.21-5.37
		C11.07,8.33,14.05,10,17.42,10c0.78,0,1.53-0.09,2.25-0.26C19.88,10.45,20,11.21,20,12C20,16.41,16.41,20,12,20z"/>
</g>
<g id="Sharp" display="none">
	<g id="ui_x5F_spec_x5F_header_copy_4" display="inline">
	</g>
	<path display="inline" d="M9,11.75c-0.69,0-1.25,0.56-1.25,1.25S8.31,14.25,9,14.25s1.25-0.56,1.25-1.25S9.69,11.75,9,11.75z
		 M15,11.75c-0.69,0-1.25,0.56-1.25,1.25s0.56,1.25,1.25,1.25s1.25-0.56,1.25-1.25S15.69,11.75,15,11.75z M12,2C6.48,2,2,6.48,2,12
		s4.48,10,10,10s10-4.48,10-10S17.52,2,12,2z M12,20c-4.41,0-8-3.59-8-8c0-0.29,0.02-0.58,0.05-0.86c2.36-1.05,4.23-2.98,5.21-5.37
		C11.07,8.33,14.05,10,17.42,10c0.78,0,1.53-0.09,2.25-0.26C19.88,10.45,20,11.21,20,12C20,16.41,16.41,20,12,20z"/>
</g>
<g id="Outline" fill="currentColor">
	<g id="ui_x5F_spec_x5F_header">
	</g>
	<path d="M10.25,13c0,0.69-0.56,1.25-1.25,1.25S7.75,13.69,7.75,13S8.31,11.75,9,11.75S10.25,12.31,10.25,13z M15,11.75
		c-0.69,0-1.25,0.56-1.25,1.25s0.56,1.25,1.25,1.25s1.25-0.56,1.25-1.25S15.69,11.75,15,11.75z M22,12c0,5.52-4.48,10-10,10
		S2,17.52,2,12S6.48,2,12,2S22,6.48,22,12z M10.66,4.12L10.66,4.12C12.06,6.44,14.6,8,17.5,8c0.46,0,0.91-0.05,1.34-0.12
		C17.44,5.56,14.9,4,12,4C11.54,4,11.09,4.05,10.66,4.12z M4.42,9.47L4.42,9.47C6.13,8.5,7.45,6.92,8.08,5.03
		C6.37,6,5.05,7.58,4.42,9.47z M20,12c0-0.78-0.12-1.53-0.33-2.24C18.97,9.91,18.25,10,17.5,10c-3.13,0-5.92-1.44-7.76-3.69
		c-1.05,2.56-3.14,4.57-5.74,5.55C4.01,11.9,4,11.95,4,12c0,4.41,3.59,8,8,8S20,16.41,20,12z"/>
</g>
<g id="Duotone" display="none">
	<g id="ui_x5F_spec_x5F_header_copy_2" display="inline">
	</g>
	<g display="inline">
		<path opacity="0.3" d="M17.5,8c0.46,0,0.91-0.05,1.34-0.12C17.44,5.56,14.9,4,12,4c-0.46,0-0.91,0.05-1.34,0.12h0
			C12.06,6.44,14.6,8,17.5,8z"/>
		<path opacity="0.3" d="M8.08,5.03C6.37,6,5.05,7.58,4.42,9.47h0C6.13,8.5,7.45,6.92,8.08,5.03z"/>
		<path d="M12,2C6.48,2,2,6.48,2,12s4.48,10,10,10s10-4.48,10-10S17.52,2,12,2z M12,4c2.9,0,5.44,1.56,6.84,3.88
			C18.41,7.95,17.96,8,17.5,8c-2.9,0-5.44-1.56-6.84-3.88h0C11.09,4.05,11.54,4,12,4z M8.08,5.03C7.45,6.92,6.13,8.5,4.42,9.47h0
			C5.05,7.58,6.37,6,8.08,5.03z M12,20c-4.41,0-8-3.59-8-8c0-0.05,0.01-0.1,0.01-0.15c2.6-0.98,4.68-2.99,5.74-5.55
			C11.58,8.56,14.37,10,17.5,10c0.75,0,1.47-0.09,2.17-0.24C19.88,10.47,20,11.22,20,12C20,16.41,16.41,20,12,20z"/>
		<circle cx="9" cy="13" r="1.25"/>
		<circle cx="15" cy="13" r="1.25"/>
	</g>
</g>
<g id="Fill" display="none">
	<g id="ui_x5F_spec_x5F_header_copy" display="inline">
	</g>
	<path display="inline" d="M9,11.75c-0.69,0-1.25,0.56-1.25,1.25S8.31,14.25,9,14.25s1.25-0.56,1.25-1.25S9.69,11.75,9,11.75z
		 M15,11.75c-0.69,0-1.25,0.56-1.25,1.25s0.56,1.25,1.25,1.25s1.25-0.56,1.25-1.25S15.69,11.75,15,11.75z M12,2C6.48,2,2,6.48,2,12
		s4.48,10,10,10s10-4.48,10-10S17.52,2,12,2z M12,20c-4.41,0-8-3.59-8-8c0-0.29,0.02-0.58,0.05-0.86c2.36-1.05,4.23-2.98,5.21-5.37
		C11.07,8.33,14.05,10,17.42,10c0.78,0,1.53-0.09,2.25-0.26C19.88,10.45,20,11.21,20,12C20,16.41,16.41,20,12,20z"/>
</g>
<g id="nyt_x5F_exporter_x5F_info" display="none">
</g>
</svg>
